!!!COM: Palestrina, Giovanni Perluigi da
!!!OPR: Missa Ad coenam Agni
!!!OMD: Credo
!!!OTL: Crucifixus
**kern	**kern	**kern	**kern
*Ibass	*Itenor	*Icalto	*Icant
!Bassus	!Tenor	!Altus	!Cantus
*clefF4	*clefGv2	*clefG2	*clefG2
*k[]	*k[]	*k[]	*k[]
*G:mix	*G:mix	*G:mix	*G:mix
*M4/2	*M4/2	*M4/2	*M4/2
=112	=112	=112	=112
0r	0r	0r	1.g
.	.	.	2g
=113	=113	=113	=113
0r	1r	0r	1a
.	[1c	.	1g
=114	=114	=114	=114
0r	2c]	0r	1.a
.	2c	.	.
.	1d	.	.
.	.	.	2b
=115	=115	=115	=115
1r	1c	0r	2cc
.	.	.	1cc
[1G	[1d	.	.
.	.	.	4b
.	.	.	4a
=116	=116	=116	=116
2G]	2d]	0r	1b
2G	2e	.	.
1A	2f	.	4a
.	.	.	4b
.	2e	.	4cc
.	.	.	4a
=117	=117	=117	=117
1G	2.g	0r	4b
.	.	.	4cc
.	.	.	2dd
.	4f	.	.
[1A	4e	.	2cc
.	4d	.	.
.	2c	.	[2ee
=118	=118	=118	=118
2A]	1f	1r	2ee]
2B	.	.	2dd
1c	[1e	2r	2.ee
.	.	[2c	.
.	.	.	4dd
=119	=119	=119	=119
1A	1e]	2c]	4cc
.	.	.	4b
.	.	2c	1a
1B	2r	1d	.
.	2d	.	2g#
=120	=120	=120	=120
1A	2e	1c	1a
.	2e	.	.
1r	2.f	[1d	2r
.	.	.	2a
.	4e	.	.
=121	=121	=121	=121
0r	2d	2d]	2b
.	2c	2e	2cc
.	2d	2f	2a
.	2B	2d	2g
=122	=122	=122	=122
2r	1A	1e	1a
2A	.	.	.
2B	1r	2d	1g
2c	.	2e	.
=123	=123	=123	=123
2A	0r	2f#	2a
2G	.	2g	2b
1A	.	2e	1cc
.	.	2f#	.
=124	=124	=124	=124
1G	2r	2.g	1b
.	2d	.	.
.	.	4f#	.
1r	2e	2g	1cc
.	2f	[2a	.
=125	=125	=125	=125
0r	2d	4a]	2dd
.	.	4b	.
.	2c	1cc	2ee
.	1d	.	2ff
.	.	2b	2dd
=126	=126	=126	=126
2r	1c	1cc	1ee
1c	.	.	.
.	2.g	2r	1dd
2B	.	[2g	.
.	4f	.	.
=127	=127	=127	=127
2.c	4e	2g]	0r
.	4d	.	.
.	1c	2e	.
4B	.	.	.
2A	.	2f	.
2G	2B	2e	.
=128	=128	=128	=128
2F	2A	2.d	0r
2.G	2B-	.	.
.	.	4c	.
.	1G	4B	.
4F	.	4A	.
4E	.	[2d	.
4D	.	.	.
=129	=129	=129	=129
1E	2r	2d]	1r
.	1g	2c#	.
1D	.	1d	2r
.	2f#	.	[2dd
=130	=130	=130	=130
0r	2.g	1r	2dd]
.	.	.	2b
.	4f	.	.
.	2.e	2r	2cc
.	.	2g	2b
.	4d	.	.
=131	=131	=131	=131
0r	2c	2e	2.a
.	2.d	1f	.
.	.	.	4g
.	.	.	4f
.	4c	.	4e
.	2A	2e	[2a
=132	=132	=132	=132
1r	2B	2d	4a]
.	.	.	4g
.	2c	2e	1g
2r	1A	1c	.
[2c	.	.	2f#
=133	=133	=133	=133
2c]	1G	2r	1g
2B	.	2d	.
2c	1r	2e	2r
2A	.	2f	2a
=134	=134	=134	=134
2G	0r	2g	2b
2A	.	2e	2cc
4D	.	2f	2dd
4E	.	.	.
4F	.	2f	2a
4G	.	.	.
=135	=135	=135	=135
1A	1r	4e	2cc
.	.	4d	.
.	.	4e	2cc
.	.	4f	.
1G	2r	[1g	4b
.	.	.	4cc
.	2d	.	4dd
.	.	.	4b
=136	=136	=136	=136
0r	2e	2g]	2.cc
.	2f	2a	.
.	.	.	4dd
.	2g	2b	1ee
.	2e	[2cc	.
=137	=137	=137	=137
0r	2f	4cc]	1a
.	.	4b	.
.	2f	1a	.
.	2e	.	1b
.	2e	2g#	.
=138	=138	=138	=138
0A	2.d	1a	2a
.	.	.	2a
.	4e	.	.
.	1f	2r	2.cc
.	.	2A	.
.	.	.	4dd
=139	=139	=139	=139
1A	2r	2.c	2ee
.	2A	.	2ff
.	.	4d	.
[1A	2.c	2e	2ee
.	.	2f	4a
.	4d	.	4b
=140	=140	=140	=140
2A]	2e	2e	4cc
.	.	.	4a
2D	2f	1a	2.dd
1A	2e	.	.
.	.	.	4cc
.	2c	2f	[2cc
=141	=141	=141	=141
1G	1d	1g	2cc]
.	.	.	2b
[1C	[1c	1e	[1cc
=142	=142	=142	=142
1C]	1c]	2r	0cc]
.	.	1c	.
2r	2r	.	.
[2F	[2A	2c	.
=143	=143	=143	=143
2F]	2A]	1d	0r
2F	2A	.	.
1G	1B	[1e	.
=144	=144	=144	=144
1A	1c	2e]	0r
.	.	2f#	.
2B	2d	1g	.
[2c	[2e	.	.
=145	=145	=145	=145
2c]	2e]	2.a	1.cc
2.F	2.f	.	.
.	.	4g	.
.	.	4a	.
4G	4e	4b	.
2A	2c	[2cc	2cc
=146	=146	=146	=146
1G	1g	2cc]	1dd
.	.	2b	.
1c	1e	1cc	[1ee
=147	=147	=147	=147
1A	2r	2r	2ee]
.	2c	2cc	2ff#
1G	2d	2b	1gg
.	2e	2g	.
=148	=148	=148	=148
0r	2.f	2.a	1cc
.	4e	4g	.
.	2d	2f	2r
.	[2c	2e	2gg
=149	=149	=149	=149
1r	2c]	1d	2ff
.	2B	.	2dd
2r	1c	1c	2.ee
2c	.	.	.
.	.	.	4ee
=150	=150	=150	=150
2B	1G	2r	2dd
2G	.	2g	2b
2.A	1r	2e	2.cc
.	.	2c	.
4G	.	.	4b
=151	=151	=151	=151
2F	2r	4d	2a
.	.	4c	.
2E	2g	1c	2g
1D	2f	.	1cc
.	2d	2B	.
=152	=152	=152	=152
1C	2.e	2.c	1g
.	4d	4d	.
1r	2c	2e	2r
.	2B	2d	2g
=153	=153	=153	=153
0r	1A	2e	2.cc
.	.	2f#	.
.	.	.	4cc
.	2G	[1g	2b
.	[2c	.	2cc
=154	=154	=154	=154
1G	2c]	1g]	2dd
.	2B	.	2dd
2.c	1c	2r	2ee
.	.	2c	[2gg
4c	.	.	.
=155	=155	=155	=155
2B	0r	2.g	4gg]
.	.	.	4ff
2c	.	.	2ee
.	.	4g	.
2d	.	2f	2dd
[2c	.	2g	[2ee
=156	=156	=156	=156
2c]	2r	4a	2ee]
.	.	4g	.
2B	2G	1g	2dd
1A	2.c	.	1cc
.	.	2f#	.
.	4c	.	.
=157	=157	=157	=157
2G	2B	1g	2r
2C	2c	.	2cc
2F	2d	1r	2a
2G	2d	.	2b
=158	=158	=158	=158
2C	2.e	1r	2cc
1c	.	.	1ee
.	4f	.	.
.	1g	2r	.
2G	.	2g	2dd
=159	=159	=159	=159
1A	1r	2e	1cc
.	.	2f#	.
1G	2r	1g	2b
.	2g	.	2dd
=160	=160	=160	=160
0r	2e	2c	2ee
.	2f#	2d	4dd
.	.	.	4cc
.	1g	2.e	2b
.	.	.	[2ee
.	.	4f#	.
=161	=161	=161	=161
0r	2c	2g	4ee]
.	.	.	4dd
.	2c	2.a	2.cc
.	1e	.	.
.	.	4g	4b
.	.	[2g	4b
.	.	.	8a
.	.	.	8g
=162	=162	=162	=162
1r	0d	2g]	1a
.	.	2f#	.
[1G	.	1g	1g
=163	=163	=163	=163
1G]	2r	1g	1b
.	1d	.	.
1F	.	1a	1cc
.	[2c	.	.
=164	=164	=164	=164
1D	2c]	1f	1dd
.	2B	.	.
[1C	[1c	2.e	[1ee
.	.	4f	.
=165	=165	=165	=165
2C]	2c]	2g	2ee]
2C	2c	2g	2ee
1G	1B	[1g	[1dd
=166	=166	=166	=166
2r	2r	1g]	0dd]
1G	1B	.	.
.	.	1r	.
2F#	2A	.	.
=167	=167	=167	=167
1G	2.B	2r	1r
.	.	1g	.
.	4c	.	.
2D	1d	.	1a
2D	.	2f#	.
=168	=168	=168	=168
2G	2d	1g	1b
2E	1g	.	.
1A	.	1c	1cc
.	2f#	.	.
=169	=169	=169	=169
1G	1g	2r	1b
.	.	1g	.
1r	1d	.	1a
.	.	2f#	.
=170	=170	=170	=170
2r	1G	1g	2b
1G	.	.	2b
.	2r	2d	1a
2F	[2c	2f	.
=171	=171	=171	=171
1G	2c]	2e	0g
.	2B	2d	.
2C	1c	1e	.
[2c	.	.	.
=172	=172	=172	=172
2c]	1G	1d	1dd
2B	.	.	.
1c	1r	1g	1ee
=173	=173	=173	=173
2F	2r	1a	1ff
2D	1d	.	.
2.A	.	2a	1ee
.	2c#	[2a	.
4G	.	.	.
=174	=174	=174	=174
2F	2d	2a]	1dd
2G	2B	4g	.
.	.	4f	.
1C	1c	4e	2ee
.	.	4f	.
.	.	[2g	2ee
=175	=175	=175	=175
0D	2B	2g]	0dd
.	2B	4f	.
.	.	4e	.
.	1A	1f#	.
=176	=176	=176	=176
[0G	[0G	[0g	[0b
=177	=177	=177	=177
0G]	0G]	0g]	0b]
*-	*-	*-	*-
!!!CDT: 1525/^1526/-1594/2/2
!!!OCY: Italia
!!!AGN: Mass (Canonic)
!!!AST: renaissance, vocal
!!!ASW: Hymn
!!!PWK: Masses, Book I
!!!RNB: Cadence finals: C
!!!YOR: Le Opere Complete, v. 1, p. 125
!!!YOO: Rome, Italy: Fratelli Scalera
!!!END: 1992//
!!!EED: John Miller
!!!YEC: Copyright 2000, John Miller
!!!YEN: United States of America
!!!YEM: Rights to all derivative electronic formats reserved.
!!!YEM: Refer to licensing agreement for further details.
!!!YEM: This file must be accompanied by the licensing agreement.
!!!YEM: A copy of the licensing agreement may be found at http://www.music-cog.ohio-state.edu/HumdrumDatabases/Palestrina/license.txt
!!!EMD: converted to Humdrum by Bret Aarden
